X: 10794
T: Drag Her Round The Road
R: reel
M: 4/4
K: Bminor
de|fBBA B2AB|dBAB d3e|fBBA B2AB|defd e2 de|
fBBA B2 AB|dBAB d3e|fBBA B2AB|defd e4||
d3c dfaf|gfef gaba|f3e dfab|afdf edBA|
d3c dfaf|gfef gabc'|d'baf g2 d'b|afdf e4||

